originals/ampl.svg

<?xml version="1.0" encoding="UTF-8"?>
<svg width="17px" height="17px" viewBox="0 0 17 17" version="1.1" xmlns="http://www.w3.org/2000/svg" xmlns:xlink="http://www.w3.org/1999/xlink">
    <title>ampl</title>
    <g id="ampl" stroke="none" stroke-width="1" fill="none" fill-rule="evenodd">
        <path d="M0.0110376923,17 C-0.00297498429,16.764002 -0.00364606888,16.5274256 0.00902751383,16.291355 C0.089128558,16.267107 0.171366798,16.2502362 0.254671324,16.2409625 C0.496860415,16.1996553 0.736248793,16.1439099 0.971500968,16.0740372 C1.03582668,16.0535652 1.09975036,16.0319122 1.16286996,16.0075033 C1.47294623,15.8894112 1.74582148,15.693483 1.95407621,15.4394062 C2.09822679,15.2616105 2.22489518,15.0708718 2.3323918,14.8697344 C2.48354142,14.5927509 2.61896535,14.3078097 2.73804581,14.0162108 C2.97926723,13.4275106 3.21928254,12.8377604 3.45809174,12.2469605 C4.27797654,10.2162988 5.0974593,8.18537474 5.91654002,6.15418818 C6.69380903,4.22299931 7.45633673,2.28669245 8.20412313,0.345267595 C8.21899845,0.305898428 8.23588395,0.266529261 8.25276944,0.227160094 C8.52856593,0.15078391 8.80114613,0.0732266506 9.08257112,0 C9.09945662,0.039369167 9.11513601,0.0744077256 9.12800115,0.109839976 C9.44480528,0.97596165 9.76134139,1.84300194 10.0776095,2.71096084 C11.1570753,5.6667979 12.2405615,8.62106019 13.3513861,11.5654802 C13.6550571,12.3704484 13.9612743,13.1743668 14.2700377,13.9772354 C14.3915979,14.3052563 14.5347551,14.6252118 14.6986077,14.9350872 C14.7705721,15.0673676 14.8489691,15.1968922 14.9325925,15.3220861 C15.1899266,15.714255 15.5889364,15.9968618 16.0498497,16.1134064 C16.2978556,16.1777292 16.5497636,16.2266444 16.8040687,16.2598597 L16.9849847,16.2858433 C17.010715,16.3645816 16.9950356,16.4405641 16.9974479,16.5161529 C17,16.5917417 16.9974479,16.6767791 16.9974479,16.7570922 C17,16.8346731 16.9984686,16.9123278 16.9930255,16.989764 C16.9672952,16.9937009 16.9471934,16.9984252 16.9266896,16.9996063 C16.898145,16.9996063 16.8696005,16.9996063 16.841056,16.9996063 L10.5644747,16.9996063 C10.5576387,16.9860297 10.5527675,16.9715868 10.5500014,16.9566939 C10.5500014,16.743838 10.5500014,16.530982 10.5500014,16.318126 C10.5517866,16.3085398 10.554617,16.2991688 10.5584442,16.2901739 C10.6110673,16.2757594 10.6648771,16.2658794 10.7192584,16.260647 C10.9806353,16.2268194 11.2396351,16.1772516 11.4947853,16.1122253 C11.5973044,16.0842732 11.6982154,16.0480535 11.7979202,16.0114402 C11.8476609,15.9921923 11.8957845,15.9691564 11.941849,15.9425442 C12.1931213,15.803571 12.2940323,15.5882217 12.2727244,15.3126375 C12.2614378,15.1874372 12.2388353,15.0634637 12.2051824,14.9421736 C12.1549279,14.7528079 12.0845717,14.5693476 12.0186378,14.3854936 C10.7007648,10.7837398 9.39723106,7.17686791 8.10803659,3.56487807 C8.09436738,3.5255089 8.08994499,3.48220282 8.04933938,3.44677057 C8.03647424,3.4546444 8.01878467,3.46054978 8.00913581,3.47236053 C7.99878196,3.49060098 7.99081268,3.51004454 7.98541571,3.5302332 C7.35542577,5.30617633 6.68362413,7.06755286 6.0154408,8.83050416 C5.522143,10.135592 5.02804113,11.4406799 4.5681123,12.7571849 C4.38357791,13.2851254 4.20628017,13.8162155 4.03260075,14.3469118 C3.96520188,14.5500482 3.91544069,14.7583952 3.88384754,14.9697321 C3.85876232,15.1109187 3.85443006,15.2548932 3.8709824,15.3972812 C3.89227583,15.5836943 3.99247771,15.7528017 4.14718092,15.8634121 C4.24884524,15.9344819 4.3605909,15.9905878 4.47886037,16.0299437 C4.66711742,16.09498 4.86083682,16.1437221 5.05779177,16.1756096 C5.27529309,16.2149788 5.49359847,16.2445057 5.71190385,16.2787569 C5.7259751,16.281119 5.73964431,16.2838749 5.75853999,16.2874181 C5.76412003,16.3029641 5.76789611,16.3190756 5.76979699,16.3354485 C5.76979699,16.5414804 5.76979699,16.7473812 5.76979699,16.9531507 C5.76815509,16.9654575 5.76532825,16.9775848 5.76135424,16.9893703 C5.74184344,16.9935639 5.72211471,16.9967181 5.70225499,16.9988189 C5.67371046,16.9988189 5.64516593,16.9988189 5.61662139,16.9988189 L0.0110376923,16.9988189 L0.0110376923,17 Z" id="Path" fill="#000000" fill-rule="nonzero"></path>
    </g>
</svg>

<svg xmlns="http://www.w3.org/2000/svg" width="17" height="17" viewBox="0 0 17 17"><path d="M.011 17a6 6 0 0 1-.002-.709q.12-.035.246-.05.363-.062.717-.167.097-.03.19-.066c.31-.119.584-.315.792-.569q.216-.266.378-.57.228-.414.406-.853.361-.882.72-1.769l2.459-6.093Q7.083 3.258 8.204.345q.023-.059.049-.118C8.529.151 8.8.073 9.083 0c.016.04.032.074.045.11l.95 2.601a920 920 0 0 0 3.273 8.854q.456 1.208.919 2.412.183.492.429.958a5 5 0 0 0 .234.387c.257.392.656.675 1.117.791q.373.098.754.147l.181.026c.026.079.01.155.012.23.003.076 0 .16 0 .241q.004.116-.004.233-.038.007-.066.01h-6.363a.2.2 0 0 1-.014-.043v-.639l.008-.028a1 1 0 0 1 .161-.03q.393-.05.776-.148c.102-.028.203-.064.303-.1q.075-.03.144-.07c.251-.138.352-.354.33-.63a2 2 0 0 0-.067-.37c-.05-.19-.12-.373-.186-.557a1449 1449 0 0 1-3.911-10.82c-.014-.04-.018-.083-.059-.118-.013.008-.03.014-.04.025a.3.3 0 0 0-.024.058c-.63 1.776-1.301 3.538-1.97 5.3-.493 1.306-.987 2.61-1.447 3.927a84 84 0 0 0-.535 1.59 4 4 0 0 0-.15.623 1.5 1.5 0 0 0-.012.427.67.67 0 0 0 .276.466q.154.107.332.167.283.098.579.146c.217.039.436.069.654.103l.047.008q.008.024.01.048v.618l-.008.036-.059.01H.011z"/></svg>
